assets/src/images/icons/ic_sec_blue.svg

<svg width="42" height="50" viewBox="0 0 42 50" fill="none" xmlns="http://www.w3.org/2000/svg">
<path fill-rule="evenodd" clip-rule="evenodd" d="M40.0391 5.85938C37.3467 5.85938 35.1562 3.66895 35.1562 0.976562C35.1562 0.437305 34.7189 0 34.1797 0H6.83594C6.29668 0 5.85938 0.437305 5.85938 0.976562C5.85938 3.66895 3.66895 5.85938 0.976562 5.85938C0.437305 5.85938 0 6.29668 0 6.83594V22.7725C0 35.1921 8.09521 46.3208 20.2273 49.9589C20.3188 49.9862 20.4133 50 20.5078 50C20.6023 50 20.697 49.9862 20.7884 49.9588C32.6577 46.3983 41.0156 35.4638 41.0156 22.7725V6.83594C41.0156 6.29668 40.5783 5.85938 40.0391 5.85938ZM39.0625 22.7725C39.0625 34.4373 31.619 44.5393 20.5078 48.0022C9.48516 44.5669 1.95312 34.3734 1.95312 22.7725V7.74297C4.94248 7.31348 7.31348 4.94248 7.74297 1.95312H33.2727C33.7021 4.94248 36.0731 7.31348 39.0625 7.74297V22.7725ZM20.5077 3.90727C19.9669 3.90727 19.5321 4.34281 19.5321 4.88285C19.5321 5.38549 19.9102 5.80375 20.4101 5.85336C20.9887 5.91078 21.4833 5.4601 21.4833 4.88285C21.4833 4.34203 21.0477 3.90727 20.5077 3.90727ZM31.9834 4.49102C32.8753 6.52754 34.4881 8.14033 36.5246 9.03223C36.8798 9.18789 37.1094 9.53887 37.1094 9.92676V22.7725C37.1094 33.251 30.6255 42.3704 20.8336 45.8355C20.7282 45.8728 20.6181 45.8915 20.5078 45.8915C20.3976 45.8915 20.2874 45.8728 20.182 45.8355C10.3819 42.3675 3.90625 33.2425 3.90625 22.7725V9.92676C3.90625 9.53897 4.13584 9.18789 4.49102 9.03223C6.52754 8.14033 8.14033 6.52754 9.03223 4.49102C9.18789 4.13584 9.53887 3.90625 9.92676 3.90625H16.6035C17.1428 3.90625 17.5801 4.34355 17.5801 4.88281C17.5801 5.42207 17.1428 5.85938 16.6035 5.85938H10.5442C9.5124 7.879 7.879 9.5124 5.85938 10.5442V22.7725C5.85938 32.3294 11.5966 40.5754 20.5078 43.8764C29.419 40.5755 35.1562 32.3294 35.1562 22.7725V10.5442C33.1366 9.5124 31.5031 7.879 30.4714 5.85938H24.4121C23.8729 5.85938 23.4355 5.42207 23.4355 4.88281C23.4355 4.34355 23.8729 3.90625 24.4121 3.90625H31.0889C31.4768 3.90625 31.8277 4.13574 31.9834 4.49102ZM20.5078 14.2578C15.6615 14.2578 11.7188 18.2006 11.7188 23.0469C11.7188 27.8932 15.6615 31.8359 20.5078 31.8359C25.3541 31.8359 29.2969 27.8932 29.2969 23.0469C29.2969 18.2006 25.3541 14.2578 20.5078 14.2578ZM20.5078 29.8828C16.7385 29.8828 13.6719 26.8162 13.6719 23.0469C13.6719 19.2775 16.7385 16.2109 20.5078 16.2109C24.2771 16.2109 27.3438 19.2775 27.3438 23.0469C27.3438 26.8162 24.2771 29.8828 20.5078 29.8828ZM23.7235 20.4031C24.1051 20.0219 24.7232 20.0219 25.1047 20.4031C25.486 20.7846 25.486 21.4029 25.1047 21.7843L20.2219 26.6671C20.0311 26.8577 19.7813 26.9531 19.5313 26.9531C19.2813 26.9531 19.0315 26.8577 18.8407 26.6672L16.8876 24.7141C16.5062 24.3326 16.5062 23.7143 16.8876 23.3329C17.2691 22.9517 17.8873 22.9517 18.2687 23.3329L19.5313 24.5954L23.7235 20.4031Z" fill="#0090A1"/>
</svg>

<svg width="42" height="50" viewBox="0 0 42 50" fill="none" xmlns="http://www.w3.org/2000/svg"><path fill-rule="evenodd" clip-rule="evenodd" d="M40.04 5.86A4.888 4.888 0 0135.155.976.977.977 0 0034.18 0H6.836a.977.977 0 00-.977.977A4.888 4.888 0 01.977 5.859.977.977 0 000 6.836v15.936c0 12.42 8.095 23.549 20.227 27.187a.981.981 0 00.561 0c11.87-3.56 20.228-14.495 20.228-27.187V6.837a.977.977 0 00-.977-.977zm-.977 16.912c0 11.665-7.444 21.767-18.555 25.23a26.405 26.405 0 01-18.555-25.23V7.744c2.99-.43 5.36-2.8 5.79-5.79h25.53c.43 2.99 2.8 5.36 5.79 5.79v15.03zM20.508 3.908a.974.974 0 00-.976.976c0 .502.378.92.878.97a.974.974 0 001.073-.97.974.974 0 00-.975-.976zm11.475.584a8.797 8.797 0 004.542 4.541.977.977 0 01.584.895v12.846c0 10.478-6.484 19.597-16.275 23.063a.976.976 0 01-.652 0c-9.8-3.468-16.276-12.593-16.276-23.063V9.927c0-.388.23-.74.585-.895a8.797 8.797 0 004.541-4.541.977.977 0 01.895-.585h6.677a.977.977 0 010 1.953h-6.06a10.736 10.736 0 01-4.685 4.685v12.229c0 9.556 5.738 17.802 14.649 21.103 8.911-3.3 14.648-11.547 14.648-21.103V10.544a10.735 10.735 0 01-4.685-4.685h-6.059a.977.977 0 010-1.953h6.677c.388 0 .739.23.894.585zm-11.475 9.767c-4.846 0-8.79 3.943-8.79 8.789s3.944 8.789 8.79 8.789c4.846 0 8.789-3.943 8.789-8.79 0-4.845-3.943-8.788-8.79-8.788zm0 15.625a6.844 6.844 0 01-6.836-6.836 6.844 6.844 0 016.836-6.836 6.844 6.844 0 016.836 6.836 6.844 6.844 0 01-6.836 6.836zm3.216-9.48a.977.977 0 011.38 1.381l-4.882 4.883a.974.974 0 01-1.381 0l-1.953-1.953a.977.977 0 011.38-1.381l1.263 1.262 4.193-4.192z" fill="#0090A1"/></svg>
